img/about/skill_invision.svg

<svg height="36" viewBox="0 0 36 36" width="36" xmlns="http://www.w3.org/2000/svg"><g fill="none" fill-rule="evenodd"><g fill-rule="nonzero"><path d="m32.7365156 0h-29.47303123c-1.80239062 0-3.26348437 1.46109375-3.26348437 3.26348437v29.47303123c0 1.8023907 1.46109375 3.2634844 3.26348437 3.2634844h29.47303123c1.8023907 0 3.2634844-1.4610937 3.2634844-3.2634844v-29.47303123c0-1.80239062-1.4610937-3.26348437-3.2634844-3.26348437" fill="#dc395f"/><path d="m12.1254704 11.0708106c1.1884869 0 2.1841065-.9465171 2.1841065-2.18706476 0-1.2396962-.9956196-2.18607142-2.1841065-2.18607142s-2.18382725.94637522-2.18382725 2.18607142c0 1.24040576.99534035 2.18706476 2.18382725 2.18706476m-4.52854014 11.710134c-.12834541.5548549-.19272761 1.1539846-.19272761 1.642711 0 1.9258147 1.02774092 3.2042514 3.21184745 3.2042514 1.8113602 0 3.2798608-1.0929648 4.3372091-2.8578574l-.6456375 2.6327935h3.5968837l2.0557612-8.3780247c.5139403-2.1212201 1.5095599-3.2222736 3.0192595-3.2222736 1.1883473 0 1.9269968.7509698 1.9269968 1.990666 0 .3591657-.0321213.7504022-.1606064 1.1748449l-1.0600018 3.8509199c-.1606064.5548548-.2245696 1.1099935-.2245696 1.6317841 0 1.828183 1.0595829 3.165369 3.2758107 3.165369 1.8950152 0 3.4044354-1.2395543 4.2395884-4.2095178l-1.4130565-.5542873c-.7066679 1.9896727-1.316972 2.349406-1.798791 2.349406s-.7387891-.3261014-.7387891-.9784462c0-.2937467.0645218-.6197062.1606063-1.0122199l1.0280202-3.7517271c.2568305-.8809563.353334-1.6621522.353334-2.3799158 0-2.8066291-1.670306-4.2713892-3.6936665-4.2713892-1.8948755 0-3.8221516 1.7367951-4.7855103 3.5646942l.7063886-3.280881h-5.4918989l-.7709104 2.8897864h2.5695618l-1.5823216 6.4368841c-1.2425344 2.806629-3.52496 2.8521811-3.8113979 2.7870459-.4703671-.107849-.7711898-.2893476-.7711898-.9103309 0-.3583142.0642426-.8730095.2248489-1.4935671l2.4090951-9.7098184h-6.10248225l-.77091043 2.8897864h2.53716118l-1.63776568 6.7993136" fill="#fff"/></g><path d="m-2-2h40v40h-40z"/></g></svg>

<?xml version="1.0" encoding="UTF-8"?>
<svg width="36px" height="36px" viewBox="0 0 36 36" version="1.1" xmlns="http://www.w3.org/2000/svg" xmlns:xlink="http://www.w3.org/1999/xlink">
    <!-- Generator: Sketch 63.1 (92452) - https://sketch.com -->
    <title>skill_invision</title>
    <desc>Created with Sketch.</desc>
    <g id="Portfolio" stroke="none" stroke-width="1" fill="none" fill-rule="evenodd">
        <g id="202003" transform="translate(-867.000000, -2652.000000)">
            <g id="skill_invision" transform="translate(865.000000, 2650.000000)">
                <g id="invision" transform="translate(2.000000, 2.000000)" fill-rule="nonzero">
                    <path d="M32.7365156,0 L3.26348437,0 C1.46109375,0 0,1.46109375 0,3.26348437 L0,32.7365156 C0,34.5389063 1.46109375,36 3.26348437,36 L32.7365156,36 C34.5389063,36 36,34.5389063 36,32.7365156 L36,3.26348437 C36,1.46109375 34.5389063,0 32.7365156,0" id="Path" fill="#DC395F"></path>
                    <path d="M12.1254704,11.0708106 C13.3139573,11.0708106 14.3095769,10.1242935 14.3095769,8.88374584 C14.3095769,7.64404964 13.3139573,6.69767442 12.1254704,6.69767442 C10.9369835,6.69767442 9.94164315,7.64404964 9.94164315,8.88374584 C9.94164315,10.1241516 10.9369835,11.0708106 12.1254704,11.0708106 M7.59693026,22.7809446 C7.46858485,23.3357995 7.40420265,23.9349292 7.40420265,24.4236556 C7.40420265,26.3494703 8.43194357,27.627907 10.6160501,27.627907 C12.4274103,27.627907 13.8959109,26.5349422 14.9532592,24.7700496 L14.3076217,27.4028431 L17.9045054,27.4028431 L19.9602666,19.0248184 C20.4742069,16.9035983 21.4698265,15.8025448 22.9795261,15.8025448 C24.1678734,15.8025448 24.9065229,16.5535146 24.9065229,17.7932108 C24.9065229,18.1523765 24.8744016,18.543613 24.7459165,18.9680557 L23.6859147,22.8189756 C23.5253083,23.3738304 23.4613451,23.9289691 23.4613451,24.4507597 C23.4613451,26.2789427 24.520928,27.6161287 26.7371558,27.6161287 C28.632171,27.6161287 30.1415912,26.3765744 30.9767442,23.4066109 L29.5636877,22.8523236 C28.8570198,24.8419963 28.2467157,25.2017296 27.7648967,25.2017296 C27.2830777,25.2017296 27.0261076,24.8756282 27.0261076,24.2232834 C27.0261076,23.9295367 27.0906294,23.6035772 27.1867139,23.2110635 L28.2147341,19.4593364 C28.4715646,18.5783801 28.5680681,17.7971842 28.5680681,17.0794206 C28.5680681,14.2727915 26.8977621,12.8080314 24.8744016,12.8080314 C22.9795261,12.8080314 21.05225,14.5448265 20.0888913,16.3727256 L20.7952799,13.0918446 L15.303381,13.0918446 L14.5324706,15.981631 L17.1020324,15.981631 L15.5197108,22.4185151 C14.2771764,25.2251441 11.9947508,25.2706962 11.7083129,25.205561 C11.2379458,25.097712 10.9371231,24.9162134 10.9371231,24.2952301 C10.9371231,23.9369159 11.0013657,23.4222206 11.161972,22.801663 L13.5710671,13.0918446 L7.46858485,13.0918446 L6.69767442,15.981631 L9.2348356,15.981631 L7.59706992,22.7809446" id="Shape" fill="#FFFFFF"></path>
                </g>
                <rect id="Rectangle-Copy-2" x="0" y="0" width="40" height="40"></rect>
            </g>
        </g>
    </g>
</svg>
